SeaMapSymbols/Tidal_Scale.svg

<?xml version="1.0" encoding="UTF-8" standalone="no"?>
<svg
   xmlns:dc="http://purl.org/dc/elements/1.1/"
   xmlns:cc="http://creativecommons.org/ns#"
   xmlns:rdf="http://www.w3.org/1999/02/22-rdf-syntax-ns#"
   xmlns:svg="http://www.w3.org/2000/svg"
   xmlns="http://www.w3.org/2000/svg"
   xmlns:sodipodi="http://sodipodi.sourceforge.net/DTD/sodipodi-0.dtd"
   xmlns:inkscape="http://www.inkscape.org/namespaces/inkscape"
   version="1.0"
   id="body"
   width="86"
   height="86"
   viewBox="0 0 1 1"
   preserveAspectRatio="none"
   sodipodi:version="0.32"
   inkscape:version="0.48.2 r9819"
   sodipodi:docname="Tidal_Scale.svg"
   inkscape:output_extension="org.inkscape.output.svg.inkscape">
  <metadata
     id="metadata100">
    <rdf:RDF>
      <cc:Work
         rdf:about="">
        <dc:format>image/svg+xml</dc:format>
        <dc:type
           rdf:resource="http://purl.org/dc/dcmitype/StillImage" />
        <dc:title>SVG drawing</dc:title>
      </cc:Work>
    </rdf:RDF>
  </metadata>
  <defs
     id="defs98" />
  <sodipodi:namedview
     inkscape:window-height="1088"
     inkscape:window-width="1920"
     inkscape:pageshadow="2"
     inkscape:pageopacity="0"
     guidetolerance="10.0"
     gridtolerance="10.0"
     objecttolerance="10.0"
     borderopacity="1.0"
     bordercolor="#666666"
     pagecolor="#ffffff"
     id="base"
     showgrid="false"
     inkscape:zoom="4.5112994"
     inkscape:cx="49.171913"
     inkscape:cy="42.312655"
     inkscape:window-x="0"
     inkscape:window-y="0"
     inkscape:current-layer="content"
     inkscape:window-maximized="1" />
  <title
     id="title3">SVG drawing</title>
  <desc
     id="desc5">This was produced by version 4.2 of GNU libplot, a free library for exporting 2-D vector graphics.</desc>
  <g
     id="content"
     transform="matrix(1.7361e-3,0,0,-1.7361e-3,-0.4891854,0.7606965)"
     xml:space="preserve"
     stroke-miterlimit="10.433"
     fill-rule="even-odd"
     font-style="normal"
     font-variant="normal"
     font-weight="normal"
     font-stretch="normal"
     font-size-adjust="none"
     letter-spacing="normal"
     word-spacing="normal"
     style="font-style:normal;font-variant:normal;font-weight:normal;font-stretch:normal;letter-spacing:normal;word-spacing:normal;text-anchor:start;fill:none;fill-opacity:1;stroke:#000000;stroke-linecap:butt;stroke-linejoin:miter;stroke-miterlimit:10.43299961;stroke-dasharray:none;stroke-dashoffset:0;stroke-opacity:1">






<g
   transform="matrix(-4.6321561,-4.0982455e-5,4.0982455e-5,-4.6321561,859.24398,432.45316)"
   id="g3">
	<path
   id="path5"
   d="M 90.625,107.004 C 85.453,107.004 80.922,102.754 80.922,97.902 L 80.922,61.762 C 80.922,60.114 79.578,58.77 77.93,58.77 L 70.742,58.77 L 70.703,106.762 L 32.633,106.129 L 32.633,23.98 C 32.633,19.691 36.133,16.199 40.43,16.199 L 62.907,16.199 C 67.204,16.199 70.704,19.691 70.704,23.98 C 70.704,23.98 70.704,24.316 70.704,24.91 C 70.704,29.941 70.681,53.644 70.142,53.676 C 70.181,53.676 77.845,53.676 77.845,53.676 C 82.251,53.676 85.829,57.254 85.829,61.66 L 85.782,97.902 C 85.782,100.293 88.384,102.144 90.626,102.144 C 93.048,102.144 96.118,100.144 95.978,96.785 L 92.142,76.105 L 91.29,69.097 L 91.899,48.659 L 90.188,48.636 C 86.376,48.636 83.29,45.558 83.29,41.761 L 83.478,31.066 C 83.478,31.066 77.142,24.777 77.142,23.894 C 77.142,23.894 79.58,21.464 80.462,21.464 L 93.228,34.167 C 95.228,36.183 96.197,38.581 96.197,41.534 L 96.197,69.096 C 96.197,69.096 96.986,75.065 96.986,75.112 C 96.986,75.112 100.892,96.698 100.978,97.901 C 100.977,103.121 95.508,107.004 90.625,107.004 z M 109.086,-0.777 L 15.062,-0.777 C 6.914,-0.777 0.296,5.84 0.296,13.996 L 0.296,108.004 C 0.296,116.16 6.913,122.777 15.062,122.777 L 109.085,122.777 C 117.233,122.777 123.851,116.16 123.851,108.004 L 123.851,13.996 C 123.852,5.84 117.234,-0.777 109.086,-0.777 z"
   style="fill:#231f20" />
	<path
   id="path7"
   d="M 15.062,1.723 C 8.296,1.723 2.796,7.231 2.796,13.996 L 2.796,108.004 C 2.796,114.777 8.296,120.285 15.062,120.285 L 109.085,120.285 C 115.858,120.285 121.351,114.777 121.351,108.004 L 121.351,13.996 C 121.351,7.23 115.859,1.723 109.085,1.723 L 15.062,1.723 L 15.062,1.723 z"
   style="fill:#ffffff" />
	
</g><line
   x1="25.5"
   y1="2.5508001"
   x2="81.301003"
   y2="2.5508001"
   id="line21"
   style="stroke:#ffffff;stroke-width:0" />








<path
   d="M 596.65241,246.75762 L 594.68406,246.75762 L 592.74733,246.9682 L 590.83153,247.1786 L 588.94744,247.49446 L 587.1054,247.91549 L 585.2845,248.44179 L 583.50559,248.96808 L 581.75826,249.59954 L 580.06368,250.33639 L 578.40054,251.17845 L 576.79014,252.12572 L 575.23226,253.07305 L 573.72708,254.02033 L 572.264,255.17824 L 570.87465,256.33611 L 569.52734,257.59914 L 568.25366,258.86227 L 567.04318,260.23058 L 565.89592,261.59889 L 564.81168,263.0725 L 563.81178,264.54613 L 562.87495,266.12501 L 562.02241,267.70386 L 561.25401,269.38803 L 560.55933,271.0721 L 559.94878,272.86152 L 559.42246,274.65085 L 558.99093,276.4402 L 558.65404,278.33494 L 558.40144,280.22954 L 558.25406,282.12415 L 558.20149,284.12405 C 558.20149,304.64931 575.60066,322.0168 596.65241,322.0168 C 617.16731,322.0168 633.97697,304.64931 633.97697,284.12405 C 633.97697,263.0725 617.16731,246.75762 596.65241,246.75762 z"
   id="path39"
   style="fill:#ffffff;stroke:#ffffff;stroke-width:0" />




























<g
   transform="matrix(13.984474,0,0,-13.984474,352.07712,372.61752)"
   id="g3239"><path
     id="path3175"
     d="M 1.2174479,25.487101 30.782552,25.464235"
     style="fill:none;stroke:#000000;stroke-width:1.5;stroke-linecap:butt;stroke-linejoin:miter;stroke-miterlimit:4;stroke-opacity:1;stroke-dasharray:none" /><path
     style="fill:none;stroke:#000000;stroke-width:1.5;stroke-linecap:butt;stroke-linejoin:miter;stroke-miterlimit:4;stroke-opacity:1;stroke-dasharray:none"
     d="M 16.045972,1.2808378 15.954028,24.001185"
     id="path3177" /><path
     transform="matrix(1.0066001,-0.00642222,0.00642222,1.0066001,3.9517817,11.149833)"
     d="m 16.25,14.767858 c 0,2.416245 -1.958754,4.375 -4.375,4.375 -2.4162458,0 -4.375,-1.958755 -4.375,-4.375 0,-2.416246 1.9587542,-4.375 4.375,-4.375 2.416246,0 4.375,1.958754 4.375,4.375 z"
     sodipodi:ry="4.375"
     sodipodi:rx="4.375"
     sodipodi:cy="14.767858"
     sodipodi:cx="11.875"
     id="path2403"
     style="fill:#ffffff;fill-opacity:1;fill-rule:evenodd;stroke:#000000;stroke-width:1.49013448;stroke-linecap:butt;stroke-linejoin:miter;stroke-miterlimit:4;stroke-opacity:1;stroke-dasharray:none;stroke-dashoffset:0;marker:none;visibility:visible;display:inline;overflow:visible;enable-background:accumulate"
     sodipodi:type="arc" /><path
     style="fill:none;stroke:#000000;stroke-width:1.5;stroke-linecap:butt;stroke-linejoin:miter;stroke-miterlimit:4;stroke-opacity:1;stroke-dasharray:none"
     d="m 10.356382,19.357819 11.287236,-0.05658"
     id="path3201" /><path
     id="path3203"
     d="M 10.356382,7.8568261 21.643618,7.8002474"
     style="fill:none;stroke:#000000;stroke-width:1.5;stroke-linecap:butt;stroke-linejoin:miter;stroke-miterlimit:4;stroke-opacity:1;stroke-dasharray:none" /><path
     id="path3205"
     d="m 9.000009,13.602239 13.999982,-0.04641"
     style="fill:none;stroke:#000000;stroke-width:1.5;stroke-linecap:butt;stroke-linejoin:miter;stroke-miterlimit:4;stroke-opacity:1;stroke-dasharray:none" /></g></g></svg>

<?xml version="1.0" encoding="UTF-8" standalone="no"?>
<svg id="body" xmlns:rdf="http://www.w3.org/1999/02/22-rdf-syntax-ns#" xmlns="http://www.w3.org/2000/svg" height="86" viewBox="0 0 1 1" width="86" version="1.0" preserveAspectRatio="none" xmlns:cc="http://creativecommons.org/ns#" xmlns:dc="http://purl.org/dc/elements/1.1/">
 <metadata id="metadata100">
  <rdf:RDF>
   <cc:Work rdf:about="">
    <dc:format>image/svg+xml</dc:format>
    <dc:type rdf:resource="http://purl.org/dc/dcmitype/StillImage"/>
    <dc:title>SVG drawing</dc:title>
   </cc:Work>
  </rdf:RDF>
 </metadata>
 <title id="title3">SVG drawing</title>
 <desc id="desc5">This was produced by version 4.2 of GNU libplot, a free library for exporting 2-D vector graphics.</desc>
 <g id="content" fill-rule="even-odd" xml:space="preserve" transform="matrix(.0017361 0 0 -.0017361 -.48919 .76070)" stroke="#000" stroke-miterlimit="10.433" fill="none">
<g id="g3" transform="matrix(-4.6322 -.000040982 .000040982 -4.6322 859.24 432.45)">
	<path id="path5" fill="#231f20" d="m90.625 107c-5.172 0-9.703-4.25-9.703-9.098v-36.14c0-1.648-1.344-2.992-2.992-2.992h-7.188l-0.039 47.99-38.07-0.63v-82.15c0-4.289 3.5-7.781 7.797-7.781h22.477c4.297 0 7.797 3.492 7.797 7.781v0.93c0 5.031-0.023 28.734-0.562 28.766h7.703c4.406 0 7.984 3.578 7.984 7.984l-0.047 36.242c0 2.388 2.602 4.238 4.844 4.238 2.422 0 5.492-2 5.352-5.355l-3.836-20.68-0.852-7.008 0.609-20.438-1.711-0.023c-3.812 0-6.898-3.078-6.898-6.875l0.188-10.695s-6.336-6.289-6.336-7.172c0 0 2.438-2.43 3.32-2.43l12.766 12.703c2 2.016 2.969 4.414 2.969 7.367v27.562s0.789 5.969 0.789 6.016c0 0 3.904 21.586 3.994 22.789 0 5.219-5.472 9.099-10.355 9.099zm18.465-107.78h-94.028c-8.148 0-14.766 6.617-14.766 14.773v94.004c0 8.16 6.617 14.78 14.766 14.78h94.018c8.15 0 14.77-6.62 14.77-14.78v-94.004c0-8.156-6.62-14.773-14.76-14.773z"/>
	<path id="path7" fill="#fff" d="m15.062 1.723c-6.766 0-12.266 5.508-12.266 12.273v94.004c0 6.78 5.5 12.28 12.266 12.28h94.018c6.78 0 12.27-5.5 12.27-12.28v-94.004c0-6.766-5.49-12.273-12.27-12.273h-94.018z"/>
</g><line id="line21" stroke-width="0" y2="2.5508" x2="81.301" y1="2.5508" x1="25.5"/>
<path id="path39" stroke-width="0" fill="#fff" d="m596.65 246.76h-1.97l-1.93 0.21-1.92 0.21-1.88 0.31-1.84 0.43-1.83 0.52-1.77 0.53-1.75 0.63-1.7 0.74-1.66 0.84-1.61 0.95-1.56 0.94-1.5 0.95-1.47 1.16-1.39 1.16-1.34 1.26-1.28 1.26-1.21 1.37-1.14 1.37-1.09 1.47-1 1.48-0.94 1.58-0.85 1.57-0.77 1.69-0.69 1.68-0.61 1.79-0.53 1.79-0.43 1.79-0.34 1.89-0.25 1.9-0.15 1.89-0.05 2c0 20.53 17.4 37.9 38.45 37.9 20.52 0 37.33-17.37 37.33-37.9 0-21.05-16.81-37.36-37.33-37.36z"/>
<g id="g3239" transform="matrix(13.984 0 0 -13.984 352.08 372.62)" stroke="#000" stroke-miterlimit="4"><path id="path3175" d="m1.2174 25.487 29.566-0.023" stroke-width="1.5" fill="none"/><path id="path3177" d="m16.046 1.2808-0.092 22.72" stroke-width="1.5" fill="none"/><path id="path2403" d="m16.25 14.768c0 2.4162-1.9588 4.375-4.375 4.375s-4.375-1.9588-4.375-4.375 1.9588-4.375 4.375-4.375 4.375 1.9588 4.375 4.375z" fill-rule="evenodd" transform="matrix(1.0066 -.0064222 .0064222 1.0066 3.9518 11.15)" stroke-width="1.4901" fill="#fff"/><path id="path3201" d="m10.356 19.358 11.287-0.05658" stroke-width="1.5" fill="none"/><path id="path3203" d="m10.356 7.8568 11.288-0.0566" stroke-width="1.5" fill="none"/><path id="path3205" d="m9 13.602 14-0.04641" stroke-width="1.5" fill="none"/></g></g>
</svg>
